assets/icons/email.svg

<svg xml:space="preserve" fill="#ebebeb" style="fill-rule:evenodd;clip-rule:evenodd;stroke-linejoin:round;stroke-miterlimit:2" viewBox="0 0 800 800" xmlns="http://www.w3.org/2000/svg"><path d="M3.75 5.25 3 6v12l.75.75h16.5L21 18V6l-.75-.75zm.75 2.446v9.554h15V7.695L12 14.514zm13.81-.946H5.69L12 12.486z" style="fill:#fff" transform="scale(33.3333)"/></svg>

<?xml version="1.0" encoding="UTF-8" standalone="no"?>
<!DOCTYPE svg PUBLIC "-//W3C//DTD SVG 1.1//EN" "http://www.w3.org/Graphics/SVG/1.1/DTD/svg11.dtd">
<svg width="100%" height="100%" viewBox="0 0 800 800" version="1.1" xmlns="http://www.w3.org/2000/svg" xmlns:xlink="http://www.w3.org/1999/xlink" xml:space="preserve" xmlns:serif="http://www.serif.com/" style="fill-rule:evenodd;clip-rule:evenodd;stroke-linejoin:round;stroke-miterlimit:2;">
    <g transform="matrix(33.3333,0,0,33.3333,0,0)">
        <path d="M3.75,5.25L3,6L3,18L3.75,18.75L20.25,18.75L21,18L21,6L20.25,5.25L3.75,5.25ZM4.5,7.696L4.5,17.25L19.5,17.25L19.5,7.695L12,14.514L4.5,7.696ZM18.31,6.75L5.69,6.75L12,12.486L18.31,6.75Z" style="fill:white;"/>
    </g>
</svg>
